X: 1
T:Kinnegad slashers
R:Jig
O:Ireland
M:12/8
K:D
A|\
d>ed d>AF A>BA A>Bc|d>ed d>AF E>ee e>fe|\
d>ed d>AF A>BA A>ag|
f>ef d>BA B>dc d2 :: A2|\
d>fa a>fd c>de e>cA|d>fa a>fd f>aa a2A|
d>fa a>fd c>de e>ag|f>ef d>BA B>dc d2:: A2 |\
d>AF d>AF A>BA A>Bc|
d>AF d>AF E>ee e>fe|\
d>AF d>AF A>BA A>ag|f>ef d>BA B>dc d2:|
